X:579
T:
S:Uppt. efter »Florsen» i Burs.
R:polka
O:Gotland, Burs
M:2/4
L:1/16
K:A
cd|e2ef edcB|c2AB AGA2|B2E2 GFE2|E2AB ABcd|e2ef edcB|c2AB AGA2|B2E2
dcB2|A2AA A2 :|
K:D
|FG|A2d2 F2d2|d2EF GFE2|E2A2 Ace2|dcde fed2|c2d2 F2d2|d2EF GFE2|E2A2 Acea|d2dd d2:|

